Numix-GalliumOS/64/categories/applications-drawing.svg

<?xml version="1.0" encoding="UTF-8" standalone="no"?>
<svg
   xmlns:dc="http://purl.org/dc/elements/1.1/"
   xmlns:cc="http://creativecommons.org/ns#"
   xmlns:rdf="http://www.w3.org/1999/02/22-rdf-syntax-ns#"
   xmlns:svg="http://www.w3.org/2000/svg"
   xmlns="http://www.w3.org/2000/svg"
   xmlns:sodipodi="http://sodipodi.sourceforge.net/DTD/sodipodi-0.dtd"
   xmlns:inkscape="http://www.inkscape.org/namespaces/inkscape"
   width="64"
   height="64"
   viewBox="0 0 64 64"
   id="svg2"
   version="1.1"
   inkscape:version="0.91 r"
   sodipodi:docname="xfce-graphics.svg">
  <metadata
     id="metadata14">
    <rdf:RDF>
      <cc:Work
         rdf:about="">
        <dc:format>image/svg+xml</dc:format>
        <dc:type
           rdf:resource="http://purl.org/dc/dcmitype/StillImage" />
      </cc:Work>
    </rdf:RDF>
  </metadata>
  <defs
     id="defs12" />
  <sodipodi:namedview
     pagecolor="#ffffff"
     bordercolor="#666666"
     borderopacity="1"
     objecttolerance="10"
     gridtolerance="10"
     guidetolerance="10"
     inkscape:pageopacity="0"
     inkscape:pageshadow="2"
     inkscape:window-width="640"
     inkscape:window-height="480"
     id="namedview10" />
  <g
     style="fill:#f2469c"
     id="g4">
    <path
       d="M 50.667969 12.136719 L 27.503906 44.222656 C 25.632812 44.195312 23.074219 42.71875 21.816406 41.320312 L 47.511719 10.765625 C 49.238281 10.445312 50.289062 10.90625 50.667969 12.136719 Z "
       id="path6" />
    <path
       d="M 22.183594 49.117188 C 24.871094 48.835938 29.035156 46.160156 27.089844 42.285156 C 22.429688 41.242188 23.488281 40.714844 23.488281 40.714844 C 17.082031 41.914062 12.214844 47.628906 13.554688 51.261719 C 14.40625 53.5625 14.265625 53.328125 14.265625 53.328125 C 16.039062 48.875 16.074219 49.691406 22.183594 49.117188 Z "
       id="path8" />
  </g>
</svg>

<svg xmlns="http://www.w3.org/2000/svg" viewBox="0 0 64 64">
 <g style="fill:#f2469c">
  <path d="m 50.668 12.137 l -23.16 32.09 c -1.871 -0.027 -4.43 -1.504 -5.688 -2.902 l 25.695 -30.555 c 1.727 -0.32 2.777 0.141 3.156 1.371 Z"/>
  <path d="m 22.18 49.12 c 2.688 -0.281 6.852 -2.957 4.906 -6.832 c -4.66 -1.043 -3.602 -1.57 -3.602 -1.57 c -6.406 1.199 -11.273 6.914 -9.934 10.547 c 0.852 2.301 0.711 2.066 0.711 2.066 c 1.773 -4.453 1.809 -3.637 7.918 -4.211 Z"/>
 </g>
</svg>
